!!!!SEGMENT: pl-wnifc--6837-n_stefani-jozef--ulubiony-taniec-wegierski.krn
!!!cenid: 18xx:3990
!!!COM: Stefani, Józef
!!!COM-rismID: pe30024097
!!!CDT: 1800/04/16-1876/03/19
!!!CNT: Polish
!!!OTL: Ulubiony taniec węgierski
!!!PDT:
!!!AGN:
!!!SMS-siglum: PL-Wnifc
!!!SMS-shelfmark: 6837/n
!!!SMS-shelfwork: W
!!!SMS-variant:
!!!SMS-altvar:
!!!NIFC-rismSourceID: 1001161835
!!!NIFC-rismChildID: 1001161835
!!!NIFC-islandoraID: nifc:213878
!!!URL-pdf-islandora: https://repozytorium.nifc.pl/islandora/object/nifc%3A213878/datastream/PDF/view
!!!URL-scan: https://polish.musicsources.pl/pl/lokalizacje/galeria/druki-muzyczne/16953 @EN{Scan on Polish Music Sources Website} @PL{Skany w portalu Dziedzictwo Muzyki Polskiej w otwartym dostępie}
!!!IIIF:
!!!ONB-nifc:
!!!AIN: 2 piano
!!!key: C
**kern	**kern	**dynam
*part2	*part1	*part1
*staff2	*staff1	*
*I"Piano=Forte	*I"Piano=Forte	*
*I'pf	*I'pf	*
*ICklav	*ICklav	*
*Ipiano	*Ipiano	*
*clefF4	*clefG2	*
*k[]	*k[]	*
*C:	*C:	*
*M2/4	*M2/4	*
=1	=1	=1
8C\L	2r	f
8E\J 8G	.	.
8C\L	.	.
8E\J 8G	.	.
=2	=2	=2
8C\L	2r	.
8E\J 8G	.	.
8C\L	.	.
8E\J 8G	.	.
=3!|:	=3!|:	=3!|:
!LO:TX:b:t=[segno]	!LO:TX:t=[segno]	!
!LO:TX:b:t=[segno]	!LO:TX:t=[segno]	!
8C\L	8g'\L	mf
8E\J 8G	8cc'\J	.
8C\L	16ee'^<\LL	.
.	16dd'\J	.
8E\J 8G	8cc'\J	.
=4	=4	=4
.	(<8qff#X/	.
8C\L	8gg\)	.
8E\J 8G	8cc'\L	.
8C\L	8ee'\	.
8E\J 8G	8gg'\J	.
=5	=5	=5
8C\L	8ff\L 8aa	.
8F\J 8A	8cc\ 8ff	.
8C\L	8aa^<\ 8ccc	.
8F\J 8A	16r	.
.	16ff\Jk 16aa	.
=6	=6	=6
8C\L	8ff\ 8aa	.
8E\J 8G	4ee^\ 4gg	.
8C\L	.	.
8E\J 8G	8cc\ 8ee	.
=7	=7	=7
8C\L	8dd\ 8ff	.
.	(8qff/	.
8D\J 8F 8G	4dd^<\) 4ff 4ddd	.
8C\L	.	.
8D\J 8F 8G	8dd\ 8ff	.
=8	=8	=8
8C\L	8ee\L	.
.	(8qbb/	.
8E\J 8G	8ccc\J)	.
8C\L	8cc\L	.
8E\J 8G	8ee\J	.
=9	=9	=9
8GG\L	8dd\L	.
.	(8qff#X/	.
8D\J 8F 8G	8gg\J)	.
8GG\L	8g\L	.
8D\J 8F 8G	8b\J	.
!!LO:LB:g=original	!	!
=10	=10	=10
*tremolo	*	*
8C\L 8E 8G	(16cc\LL	.
.	16g\	.
8C\ 8E 8G	16ee\	.
.	16dd\JJ)	.
8C\J 8E 8G	8cc\	.
8r	8r	.
=11:|!|:	=11:|!|:	=11:|!|:
*^	*	*
4D/	8D\L	8.dd\L	.
.	8d\J	.	.
.	.	16dd\Jk	.
8C#X\L 8c#X	4ryy	8dd\L 8ee	.
8Cn\J 8cn	.	8dd\J 8ff#X	.
*v	*v	*	*
=12	=12	=12
.	(8qaa/	.
8BB\L 8B	16gg\LL)	.
.	16ff#X\	.
8AA\ 8A	16gg\	.
.	16aa\JJ	.
8GG\ 8G	8bb\L	.
8GG\J 8G	8bb^<\J 8ddd	.
=13	=13	=13
8D\L	(16bb\LL 16ddd	.
.	16aa\JJ) 16ccc	.
8F#X\	(16aa\LL 16ccc	.
.	16gg\JJ) 16bb	.
8A\	8ff#X\L 8aa	.
8d\J	8dd^<\J 8aa 8ccc	.
=14	=14	=14
*^	*	*
!	!LO:N:vis=2	!	!
2G/	8G\L	(16aa\LL 16ccc	.
.	.	16gg\JJ) 16bb	.
.	8B\ 8d	(16gg\LL 16bb	.
.	.	16dd\JJ) 16aa	.
.	8B\ 8d	8b\L 8gg	.
.	8B\J 8d	16ff#X\L	>
.	.	16ee\JJ	]]
=15	=15	=15	=15
4D/	8D\L	8.dd\L	.
.	8d\	.	.
.	.	16dd\Jk	.
4ryy	8C#X\ 8c#X	8dd\L 8ee	.
.	8Cn\J 8cn	8dd\J 8ff#X	.
*v	*v	*	*
=16	=16	=16
.	8qaa/	.
8BB\L 8B	16gg\LL	.
.	16ff#X\	.
8AA\ 8A	16gg\	.
.	16aa\JJ	.
8GG\ 8G	8bb\L	.
8GG\J 8G	8bb^<\J 8ddd	.
=17	=17	=17
*^	*^	*
!	!LO:N:vis=2	!	!	!
2D/	8D\L	16bb\LL 16ddd	4ryy	.
.	.	16aa\JJ 16ccc	.	.
.	8F#X\ 8A	16aa\LL 16ccc	.	.
.	.	16gg\JJ 16bb	.	.
.	8F#\ 8A	8aa/L	16ff#X\LL	.
.	.	.	16ee\	.
.	8F#\J 8A	16bb/L	16dd\	.
.	.	16aa/JJ	16cc\JJ	.
*v	*v	*	*	*
*	*v	*v	*
!!LO:LB:g=original	!	!
=18	=18	=18
.	(8qaa/	.
8G\L 8B	16b\LL) 16gg	.
.	16ff#X\	.
8G\ 8B	16gg\	.
.	16aa\JJ	.
8G\J 8B	8gg\	.
!	!LO:TX:b:iB:t=Fine	!
!	!LO:TX:t=P:problem: fermata nad kreską taktową	!
8r	8r;	.
=19:|!|:	=19:|!|:	=19:|!|:
!	!LO:TUP:a:problem:klamra łukowa	!
8C\L	24ee\LL 24gg	p
.	24ff\ 24aa	.
.	24ee\J 24gg	.
8E\J 8G	8cc'\J 8ee	.
!	!LO:TUP:a:problem:klamra łukowa	!
8C\L	24ee\LL 24gg	.
.	24ff\ 24aa	.
.	24ee\J 24gg	.
8E\J 8G	8cc'\J 8ee	.
=20	=20	=20
!	!LO:TUP:a:problem:klamra łukowa	!
8GG\L	24dd\LL 24ff	.
.	24ee\ 24gg	.
.	24dd\J 24ff	.
8D\J 8F 8G	8b'\J 8dd	.
!	!LO:TUP:a:problem:klamra łukowa	!
8GG\L	24dd\LL 24ff	.
.	24ee\ 24gg	.
.	24dd\J 24ff	.
8D\J 8F 8G	8b'\J 8dd	.
=21	=21	=21
!	!LO:TUP:a:problem:klamra łukowa	!
8GG\L	24dd\LL 24ff	.
.	24ee\ 24gg	.
.	24dd\J 24ff	.
8D\J 8F 8G	8b'\J 8dd	.
!	!LO:TUP:a:problem:klamra łukowa	!
8GG\L	24b\LL 24dd	.
.	24cc\ 24ee	.
.	24b\J 24dd	.
8D\J 8F 8G	8g'\J 8b	.
=22	=22	=22
8C\L	8cc\L	f
8C'\J 8F 8A	8cc'\J 8ff 8aa	.
4C'\ 4E 4G	4cc'^<\ 4ee 4gg	.
=23	=23	=23
!	!LO:TUP:a:problem:klamra łukowa	!
8C\L	24ee\LL 24gg	p
.	24ff\ 24aa	.
.	24ee\J 24gg	.
8E\J 8G	8cc'\J 8ee	.
!	!LO:TUP:a:problem:klamra łukowa	!
8C\L	24ee\LL 24gg	.
.	24ff\ 24aa	.
.	24ee\J 24gg	.
8E\J 8G	8cc'\J 8ee	.
=24	=24	=24
!	!LO:TUP:a:problem:klamra łukowa	!
8GG\L	24dd\LL 24ff	.
.	24ee\ 24gg	.
.	24dd\J 24ff	.
8D\J 8F 8G	8b'\J 8dd	.
!	!LO:TUP:a:problem:klamra łukowa	!
8GG\L	24dd\LL 24ff	.
.	24ee\ 24gg	.
.	24dd\J 24ff	.
8D\J 8F 8G	8b'\J 8dd	.
=25	=25	=25
*^	*	*
!	!	!LO:TUP:a:problem:klamra łukowa	!
4GG/	8GG\L	24dd\LL 24ff	f
.	.	24ee\ 24gg	.
.	.	24dd\J 24ff	.
.	8D\J 8F	8b'\J 8dd	.
*Xtremolo	*	*	*
8GG\L 8D 8F	4ryy	16aa\LL	.
.	.	16gg\	.
8GG\J 8D 8F	.	16b\	.
.	.	16dd\JJ	.
*v	*v	*	*
!!LO:LB:g=original	!	!
=26	=26	=26
8C\L 8E	16dd\LL	.
.	[<16cc\	.
.	8qdd/	.
8C\ 8E	16cc\]	.
.	16b\JJ	.
8C\J 8E	8cc\	.
8r	8r	.
=27:|!|:	=27:|!|:	=27:|!|:
8GG\L 8G	16bb'\LL	p
!	!LO:TX:b:i:t=stacato	!
.	16ddd'\	.
8G\ 8d 8f	16gg'\	.
.	16ddd'\JJ	.
8G\ 8d 8f	16bb'\LL	.
.	16ddd'\	.
8G\J 8d 8f	16gg'\	.
.	16ddd'\JJ	.
=28	=28	=28
*tremolo	*	*
8G\L 8c 8e	16ccc\LL	.
.	16eee\	.
8G\ 8c 8e	16gg\	.
.	16eee\JJ	.
8G\ 8c 8e	16ccc\LL	.
.	16eee\	.
8G\J 8c 8e	16gg\	.
.	16eee\JJ	.
=29	=29	=29
8G\L 8B 8d	16bb\LL	.
.	16ccc\	.
8G\ 8B 8d	16ddd\	.
.	16ccc\JJ	.
8G\ 8B 8d	16bb\LL	.
.	16gg\	.
8G\J 8B 8d	16aa\	.
.	16bb\JJ	.
=30	=30	=30
8C\ 8c	16cc\LL 16ccc	.
.	16dd\ 16ddd	.
*Xtremolo	*	*
8G\L 8c 8e	16ee\ 16eee	.
.	16ff\JJ 16fff	.
*	*tremolo	*
8G\ 8c 8e	16gg\LL 16ggg	.
.	16gg\ 16ggg	.
8G\J 8c 8e	16gg\ 16ggg	.
.	16gg\JJ 16ggg	.
=31	=31	=31
*tremolo	*Xtremolo	*
8G\L 8d 8f	16bb\LL	.
.	16ddd\	.
8G\ 8d 8f	16gg\	.
.	16ddd\JJ	.
8G\ 8d 8f	16bb\LL	.
.	16ddd\	.
8G\J 8d 8f	16gg\	.
.	16ddd\JJ	.
=32	=32	=32
8G\L 8c 8e	16ccc\LL	.
.	16eee\	.
8G\ 8c 8e	16gg\	.
.	16eee\JJ	.
8G\ 8c 8e	16ccc\LL	.
.	16eee\	.
8G\J 8c 8e	16gg\	.
.	16eee\JJ	.
=33	=33	=33
8G\L 8d 8f	16bb\LL	.
.	16ccc\	.
8G\ 8d 8f	16ddd\	.
.	16ccc\JJ	.
8G\ 8d 8f	16bb\LL	.
.	16gg\	.
8G\J 8d 8f	16aa\	.
.	16bb\JJ	.
!!LO:PB:g=original	!	!
=34	=34	=34
8c\ 8e	8ccc\	.
8r	8r	.
4C\ 4c	4cc\ 4ee 4gg 4ccc	ff
=35:|!	=35:|!	=35:|!
*k[b-]	*k[b-]	*
2r	4cc\	f
.	(16cc\LL	.
.	16dd\	.
.	16cc\	.
.	16bn\JJ)	.
=36	=36	=36
2r	(16cc\LL	fz
.	16dd\	.
.	16cc\	.
.	16bn\JJ)	.
.	(16cc\LL	fz
.	16dd\	.
.	16cc\	.
.	16b\JJ)	.
=37	=37	=37
!	!	!LO:HP:b:t=cresc&colon;
(16c\LL	(16ccc\LL	<
16d\	16ddd\	.
16c\	16ccc\	.
16Bn\JJ)	16bbn\JJ)	.
(16c\LL	(16ccc\LL	.
16d\	16ddd\	.
16c\	16ccc\	.
16Bn\JJ)	16bbn\JJ)	.
=38	=38	=38
(16c\LL	(16ccc\LL	.
16d\	16ddd\	.
16c\	16ccc\	.
16Bn\JJ)	16bbn\JJ)	.
*Xtremolo	*	*
8c\L	8ccc\L	.
8c\J	8ccc'\J	.
=39	=39	=39
8F\L	16aa\ 16fff	ff
.	16r	.
8A\J 8c	(8aa\L 8ccc	.
8F\L	16ff\Jk) 16aa	.
.	16r	.
!	!LO:N:vis=16	!
8A\J 8c	8aa\ 8ccc	.
=40	=40	=40
8C\L	16aa\ 16ccc	.
.	16r	.
8G\J 8B- 8c	4gg^<\ 4bb-X	.
8C\L	.	.
8G\J 8B- 8c	8ee\ 8gg	.
=41	=41	=41
8F\L	16ff\	.
.	16r	.
8A\J 8c	(8ff\L	.
8F\L	16aa\Jk)	.
.	16r	.
8A\J 8c	8aa\ 8ccc	.
=42	=42	=42
8C\L	16aa\ 16ccc	.
.	16r	.
8G\J 8B- 8c	4gg^<\ 4bb-	.
8C\L	.	.
8G\J 8B- 8c	8ee\ 8gg	.
!!LO:LB:g=original	!	!
=43!|:	=43!|:	=43!|:
8F\L	16ff\	.
.	16r	.
8A\J 8c	(32gg\LLL	.
.	32ff\	.
.	32ee\	.
.	32ff\JJJ)	.
8F\L	8aa\L	.
8A\J 8c	8ccc\J	.
=44	=44	=44
8F\L	16bb-\	.
.	16r	.
!	!LO:N:vis=4.	!
8B-\J 8d	4bb-^<\ 4ddd	.
8F\L	.	.
8B-\J 8d	8bb-\ 8ddd	.
=45	=45	=45
8F\L	16aa\ 16ccc	.
.	16r	.
8A\J 8c	16aa\LL 16ccc	.
.	16gg\JJ 16bb-	.
8F\L	16ff\ 16aa	.
.	16r	.
8A\J 8c	16aa\ 16ccc	.
.	16r	.
=46	=46	=46
.	(16qqccc/LL	.
.	16qqddd/JJ	.
8C\L	16aa\) 16ccc	.
.	16r	.
8G\J 8B- 8c	16gg\ 16bb-	.
.	16r	.
8C\L	4ee\ 4gg	.
8G\J 8B- 8c	.	.
=47:|!	=47:|!	=47:|!
8F\L	16ff\	.
.	16r	.
8A\J 8c	4a'^<\ 4aa	.
8F\L	.	.
8A\J 8c	8ff'\	.
=48	=48	=48
8C\L	16cc\	.
.	16r	.
8E\J 8G 8B- 8c	(8cc\L	.
8C\L	8gg\J)	.
8E\J 8G 8B- 8c	(16gg\LL	.
.	16aa\JJ)	.
=49	=49	=49
8F\L	16ff\	.
.	16r	.
8A\J 8c	4a^\ 4aa	.
8F\L	.	.
8A\J 8c	8ff\	.
=50	=50	=50
!	!LO:TX:b:i:t=dal segno al fine e poi Coda	!
8C\L	16cc\	.
.	16r	.
8E\J 8G 8B- 8c	8cc\L 8ccc	.
8C\L	8gg\J	.
8E\J 8G 8B- 8c	(16gg\LL	.
.	16aa\JJ)	.
=51	=51	=51
*tremolo	*	*
8F\L 8A 8c	(4ff\	.
8F\ 8A 8c	.	.
8F\J 8A 8c	8fff\)	.
!LO:TX:b:t=[segno]	!LO:TX:t=[segno]	!
!LO:TX:b:t=[segno]	!LO:TX:t=[segno]	!
8r	8r	.
=52||	=52||	=52||
*clefF4	*clefG2	*
*k[]	*k[]	*
*M2/4	*M2/4	*
!	!LO:TX:B:a:t=Coda	!
8E\L	8g/L	pp
8E\J 8G	8cc/J	.
8C\L	16ee'\LL	.
.	16dd'\J	.
8E\J 8G	8cc'\J	.
=53	=53	=53
.	(8qff#X/	.
8C\L	8gg\)	.
8E\J 8G	8cc\L	.
8C\L	8ee\	.
8E\J 8G	8gg\J	.
=54	=54	=54
8C\L	8aa\L	.
8F\J 8A	8ff\	.
8C\L	8aa\ 8ccc	.
8F\J 8A	16r	.
.	16ff\Jk 16aa	.
=55	=55	=55
8C\L	8ff\ 8aa	.
8E\J 8G	4ee^<\ 4gg	.
8C\L	.	.
8E\J 8G	8cc\ 8ee	.
=56	=56	=56
8C\L	8dd\ 8ff	.
8D\J 8F 8G	4dd^<\ 4ff 4ddd	.
8GG\L	.	.
8D\J 8F 8G	8dd\ 8ff	.
=57	=57	=57
8C\L	8cc\L 8ee	.
.	(8qbb/	.
8E\J 8G	8ccc\J)	.
8C\L	8cc\L	.
8E\J 8G	8ee\J	.
=58	=58	=58
8GG\L	8cc\L	.
.	(8qff#X/	.
8D\J 8F 8G	8gg\J)	.
8GG\L	8g\L	.
8D\J 8F 8G	8b\J	.
!!LO:LB:g=original	!	!
=59	=59	=59
8C\L 8E 8G	(16cc\LL	.
.	16g\	.
8C\ 8E 8G	16ee\	.
.	16dd\JJ)	.
8C\J 8E 8G	8cc\	.
8r	8r	.
=60	=60	=60
4C\ 4c	4cc\ 4ccc	ff
8GG\L 8G	8gg\L	.
8EE\J 8E	8ee\J	.
=61	=61	=61
4CC/ 4C	4cc\	.
8GG/L 8G	8g/L	.
8EE/J 8E	8e/J	.
=62	=62	=62
8CC/ 8C	(16c/LL	.
.	32d/L	.
.	32e/	.
8r	32f/	.
.	32g/	.
.	32a/	.
.	32b/JJJ)	.
(16C\LL	(16cc\LL	.
32D\L	32dd\L	.
32E\	32ee\	.
32F\	32ff\	.
32G\	32gg\	.
32A\	32aa\	.
32B\JJJ)	32bb\JJJ)	.
=63	=63	=63
8c\	8ccc\	.
8r	8r	.
8C\ 8c	8gg\ 8ccc 8eee	.
8r	8r	.
=64	=64	=64
4CC\ 4C	4E/ 4G 4c	.
4r;	4r;	.
==	==	==
*-	*-	*-
!!!system-decoration: {(s1,s2)}
!!!RDF**kern: > = above
!!!RDF**kern: < = below
!!!ENC: Filip Voros
!!!END: 2022-08-04
!!!ENC: Jan Barakat
!!!END: 2022-09-12
!!!YEC: Copyright 2022 Narodowy Instytut Fryderyka Chopina (https://polishscores.org)
!!!YEM: License CC-BY-4.0 (https://creativecommons.org/licenses/by/4.0)
